src/assets/icon-celeste-star.svg

<svg width="53" height="54" viewBox="0 0 53 54" fill="none" xmlns="http://www.w3.org/2000/svg">
<path d="M26.5 53C41.1355 53 53 41.1355 53 26.5C53 11.8645 41.1355 0 26.5 0C11.8645 0 0 11.8645 0 26.5C0 41.1355 11.8645 53 26.5 53Z" fill="url(#paint0_linear)"/>
<path d="M26.5 53.1375C41.1355 53.1375 53 41.273 53 26.6375C53 12.0019 41.1355 0.137451 26.5 0.137451C11.8645 0.137451 0 12.0019 0 26.6375C0 41.273 11.8645 53.1375 26.5 53.1375Z" fill="url(#paint1_radial)"/>
<path d="M26.4969 7.83325L30.0723 17.8773L39.6961 13.303L35.1218 22.9268L45.1659 26.4961L35.1218 30.0716L39.6961 39.6954L30.0723 35.121L26.4969 45.1651L22.9275 35.121L13.3037 39.6954L17.8781 30.0716L7.83398 26.4961L17.8781 22.9268L13.3037 13.303L22.9275 17.8773L26.4969 7.83325Z" fill="url(#paint2_linear)"/>
<path d="M26.4969 7.83325L30.0723 17.8773L39.6961 13.303L35.1218 22.9268L45.1659 26.4961L35.1218 30.0716L39.6961 39.6954L30.0723 35.121L26.4969 45.1651L22.9275 35.121L13.3037 39.6954L17.8781 30.0716L7.83398 26.4961L17.8781 22.9268L13.3037 13.303L22.9275 17.8773L26.4969 7.83325Z" fill="url(#paint3_linear)"/>
<path d="M33.3961 9.15135L33.0062 19.8057L43.6392 19.1122L35.8318 26.3639L43.8455 33.3927L33.1912 33.0028L33.8847 43.6358L26.633 35.8284L19.5985 43.8399L19.9941 33.1878L9.36109 33.8813L17.1685 26.6296L9.157 19.5951L19.8091 19.9907L19.1156 9.35769L26.3673 17.1651L33.3961 9.15135Z" fill="url(#paint4_linear)"/>
<defs>
<linearGradient id="paint0_linear" x1="55.4091" y1="-1.18304" x2="-78.1286" y2="90.4367" gradientUnits="userSpaceOnUse">
<stop stop-color="#FFDCA7"/>
<stop offset="1" stop-color="#FFC5B1"/>
</linearGradient>
<radialGradient id="paint1_radial" cx="0" cy="0" r="1" gradientUnits="userSpaceOnUse" gradientTransform="translate(2.60761 88.7158) rotate(-90) scale(104.898 114.177)">
<stop offset="0.0206505" stop-color="#FEAE6F"/>
<stop offset="0.322582" stop-color="#D66F8D"/>
<stop offset="0.678841" stop-color="#8E54A5"/>
<stop offset="0.911161" stop-color="#7652AB"/>
<stop offset="1" stop-color="#7652AB"/>
</radialGradient>
<linearGradient id="paint2_linear" x1="-3.89467" y1="49.7502" x2="70.4745" y2="36.9529" gradientUnits="userSpaceOnUse">
<stop stop-color="white" stop-opacity="0.8"/>
<stop offset="0.776" stop-color="white" stop-opacity="0"/>
</linearGradient>
<linearGradient id="paint3_linear" x1="-3.89467" y1="49.7502" x2="70.4745" y2="36.9529" gradientUnits="userSpaceOnUse">
<stop stop-color="white" stop-opacity="0.8"/>
<stop offset="0.776" stop-color="white" stop-opacity="0"/>
</linearGradient>
<linearGradient id="paint4_linear" x1="-10.3357" y1="36.8677" x2="63.4974" y2="52.463" gradientUnits="userSpaceOnUse">
<stop stop-color="white" stop-opacity="0.8"/>
<stop offset="0.776" stop-color="white" stop-opacity="0"/>
</linearGradient>
</defs>
</svg>

<svg width="53" height="54" fill="none" xmlns="http://www.w3.org/2000/svg"><path d="M26.5 53C41.136 53 53 41.136 53 26.5S41.136 0 26.5 0 0 11.864 0 26.5 11.864 53 26.5 53z" fill="url(#a)"/><path d="M26.5 53.138c14.636 0 26.5-11.865 26.5-26.5C53 12.002 41.136.137 26.5.137S0 12.001 0 26.637c0 14.635 11.864 26.5 26.5 26.5z" fill="url(#b)"/><path d="m26.497 7.833 3.575 10.044 9.624-4.574-4.574 9.624 10.044 3.57-10.044 3.575 4.574 9.623-9.624-4.574-3.575 10.044-3.57-10.044-9.623 4.574 4.574-9.623-10.044-3.576 10.044-3.57-4.574-9.623 9.623 4.574 3.57-10.044z" fill="url(#c)"/><path d="m26.497 7.833 3.575 10.044 9.624-4.574-4.574 9.624 10.044 3.57-10.044 3.575 4.574 9.623-9.624-4.574-3.575 10.044-3.57-10.044-9.623 4.574 4.574-9.623-10.044-3.576 10.044-3.57-4.574-9.623 9.623 4.574 3.57-10.044z" fill="url(#d)"/><path d="m33.396 9.151-.39 10.655 10.633-.694-7.807 7.252 8.014 7.029-10.655-.39.694 10.633-7.252-7.808-7.034 8.012.395-10.652-10.633.693 7.808-7.251-8.012-7.035 10.652.396-.693-10.633 7.251 7.807 7.03-8.014z" fill="url(#e)"/><defs><linearGradient id="a" x1="55.409" y1="-1.183" x2="-78.129" y2="90.437" gradientUnits="userSpaceOnUse"><stop stop-color="#FFDCA7"/><stop offset="1" stop-color="#FFC5B1"/></linearGradient><linearGradient id="c" x1="-3.895" y1="49.75" x2="70.475" y2="36.953" gradientUnits="userSpaceOnUse"><stop stop-color="#fff" stop-opacity=".8"/><stop offset=".776" stop-color="#fff" stop-opacity="0"/></linearGradient><linearGradient id="d" x1="-3.895" y1="49.75" x2="70.475" y2="36.953" gradientUnits="userSpaceOnUse"><stop stop-color="#fff" stop-opacity=".8"/><stop offset=".776" stop-color="#fff" stop-opacity="0"/></linearGradient><linearGradient id="e" x1="-10.336" y1="36.868" x2="63.497" y2="52.463" gradientUnits="userSpaceOnUse"><stop stop-color="#fff" stop-opacity=".8"/><stop offset=".776" stop-color="#fff" stop-opacity="0"/></linearGradient><radialGradient id="b" cx="0" cy="0" r="1" gradientUnits="userSpaceOnUse" gradientTransform="matrix(0 -104.898 114.177 0 2.608 88.716)"><stop offset=".021" stop-color="#FEAE6F"/><stop offset=".323" stop-color="#D66F8D"/><stop offset=".679" stop-color="#8E54A5"/><stop offset=".911" stop-color="#7652AB"/><stop offset="1" stop-color="#7652AB"/></radialGradient></defs></svg>
